azure-patterns/svg-service-health-white.svg

<svg xmlns="http://www.w3.org/2000/svg" viewBox="0 0 107 92">
                                
                            
  <path fill-rule="nonzero" fill="#FFFFFF" stroke="none" stroke-width="1" d="M98.7625197,7.32414791 C88.1092136,-4.21693364 66.3587138,0.665831628 53.485969,18.6432856 C37.5060099,-0.443887752 18.4188366,-4.21693364 7.54358667,7.32414791 C-3.55360713,19.3091172 -0.668336744,33.2915814 5.98997953,44.8326629 L17.3091172,44.6107191 L28.1843671,44.1668313 L36.3962905,22.4163315 C36.8401783,21.0846682 37.7279538,18.6432856 41.0571119,18.6432856 C44.608214,18.6432856 44.8301578,21.3066121 44.8301578,22.6382753 L45.0521017,58.8151271 L50.8226425,46.608214 C51.2665302,45.4984946 52.3762496,44.8326629 53.485969,44.8326629 L88.1092136,44.8326629 C89.6628208,44.8326629 90.994484,46.3862701 90.994484,47.9398772 C90.994484,49.4934843 89.6628208,51.7129231 88.1092136,51.7129231 L57.037071,51.7129231 L45.9398772,73.9073107 C45.2740456,76.1267495 44.1643262,76.7925811 41.7229436,76.5706372 C40.3912803,76.3486933 39.2815609,74.3511984 39.2815609,73.0195352 L38.8376732,39.7279538 L35.508515,48.8276527 C35.2865712,49.9373721 34.1768518,51.7129231 33.0671324,51.934867 L22.8577141,51.934867 L9.0971938,51.934867 C22.6357702,71.6878719 45.9398772,88.3336626 52.5981935,91.218933 C65.914826,86.3361677 128.724943,39.7279538 98.7625197,7.32414791 Z"></path>
</svg>

<svg xmlns="http://www.w3.org/2000/svg" viewBox="0 0 107 92"><path fill="#FFF" d="M98.763 7.324C88.109-4.216 66.359.666 53.486 18.644 37.506-.445 18.419-4.217 7.544 7.323-3.554 19.31-.668 33.292 5.99 44.833l11.32-.222 10.874-.444 8.212-21.75c.444-1.332 1.332-3.774 4.661-3.774 3.551 0 3.773 2.664 3.773 3.995l.222 36.177 5.77-12.207c.445-1.11 1.554-1.775 2.664-1.775h34.623c1.554 0 2.885 1.553 2.885 3.107 0 1.553-1.331 3.773-2.885 3.773H57.037L45.94 73.907c-.666 2.22-1.776 2.886-4.217 2.664-1.332-.222-2.441-2.22-2.441-3.551l-.444-33.292-3.33 9.1c-.221 1.11-1.331 2.885-2.44 3.107H9.097c13.538 19.753 36.842 36.399 43.5 39.284 13.317-4.883 76.127-51.491 46.165-83.895z"/></svg>
